lib/icons-source/pencil.svg

<svg width="21" height="21" viewBox="0 0 21 21" fill="none" xmlns="http://www.w3.org/2000/svg">
<g clip-path="url(#clip0_14_35)">
<rect width="21" height="21" fill="white"/>
<path d="M20.2791 3.17919L17.8189 0.719216C16.8607 -0.238884 15.3005 -0.240005 14.3399 0.717453L2.0963 12.9613C2.04198 13.0136 1.99536 13.0731 1.95754 13.1375C1.95754 13.1377 1.95738 13.1378 1.95738 13.138C1.95722 13.1381 1.95706 13.1385 1.9569 13.1388C1.95626 13.1396 1.95578 13.1404 1.9553 13.1413V13.1415C1.95209 13.1469 1.94889 13.1526 1.94584 13.1582C1.94568 13.1585 1.94568 13.1586 1.94552 13.1588C1.94536 13.159 1.94536 13.1591 1.9452 13.1593C1.94504 13.1598 1.94472 13.1601 1.94456 13.1606C1.91252 13.2192 1.88768 13.2819 1.87086 13.3469L0.030094 19.9597C-0.049542 20.2455 0.0315361 20.552 0.241762 20.7613C0.397669 20.9162 0.606614 21 0.820525 21C0.895354 21 0.970664 20.9897 1.04453 20.9688L7.6721 19.0864C7.95011 19.0074 8.1661 18.7879 8.24061 18.5086L8.25279 18.4631C8.25455 18.4569 8.25616 18.4506 8.2576 18.4442C8.4683 17.5717 8.25888 16.6249 7.69726 15.9118C7.49312 15.6526 7.25406 15.4379 6.98839 15.2703L14.2356 8.00205C14.5554 7.68114 14.5548 7.16171 14.2338 6.84176C13.913 6.52197 13.3936 6.52277 13.0736 6.84352L5.85426 14.0839C5.66999 13.7982 5.433 13.5417 5.14635 13.3233C4.93259 13.1607 4.69962 13.0266 4.45542 12.9225L13.7574 3.62027L17.3762 7.23862L9.7537 14.8453C9.43291 15.1654 9.43243 15.6848 9.75257 16.0055C10.0727 16.3261 10.5922 16.3266 10.9128 16.0067L20.2733 6.66552C20.7409 6.20121 20.9989 5.58245 21 4.92364C21.0011 4.26466 20.7451 3.6451 20.2791 3.17919ZM4.67061 15.6675C4.67061 16.1206 5.03787 16.488 5.49101 16.488C5.96338 16.488 6.25035 16.7267 6.40802 16.927C6.57274 17.1359 6.67113 17.3962 6.69228 17.659L2.00305 18.9909L3.30671 14.3076C3.6009 14.3303 3.90838 14.4431 4.1521 14.6288C4.3886 14.8087 4.67061 15.1352 4.67061 15.6675ZM19.1155 5.50282L18.5377 6.07961L14.9177 2.45998L15.4992 1.87855C15.8192 1.55972 16.3393 1.56004 16.6586 1.87951L19.1189 4.33949C19.2741 4.49474 19.3595 4.70126 19.3592 4.92091C19.3587 5.14057 19.2727 5.34677 19.1155 5.50282Z" fill="black"/>
</g>
<defs>
<clipPath id="clip0_14_35">
<rect width="21" height="21" fill="white"/>
</clipPath>
</defs>
</svg>

<svg viewBox="0 0 21 21" fill="none" xmlns="http://www.w3.org/2000/svg"><rect fill="white"/><path d="M20.28 3.18 17.818.72a2.465 2.465 0 0 0-3.48-.003L2.097 12.961a.8.8 0 0 0-.138.176v.001h-.001q0 .002-.002.003l-.01.017v.003a.8.8 0 0 0-.074.186L.03 19.96a.82.82 0 0 0 1.014 1.009l6.627-1.883a.82.82 0 0 0 .569-.577l.012-.046.005-.019c.21-.872 0-1.82-.56-2.532a2.8 2.8 0 0 0-.71-.642l7.248-7.268a.82.82 0 0 0-1.162-1.158l-7.22 7.24a3 3 0 0 0-.708-.76 3.2 3.2 0 0 0-.69-.402l9.301-9.302 3.62 3.619-7.623 7.606a.82.82 0 1 0 1.159 1.162l9.36-9.341A2.44 2.44 0 0 0 21 4.924a2.44 2.44 0 0 0-.72-1.745M4.67 15.667c0 .453.368.82.821.82.472 0 .76.239.917.439.165.209.263.47.284.732L2.003 18.99l1.304-4.683c.294.022.601.135.845.32.237.18.519.507.519 1.04M19.117 5.503l-.578.577-3.62-3.62.581-.581a.82.82 0 0 1 1.16 0l2.46 2.46a.82.82 0 0 1-.004 1.164" fill="black"/></svg>
